projects/ccf-eui/src/assets/icons/organ-icons/organ-icon-vasculature-thin.svg

<svg width="64" height="64" viewBox="0 0 64 64" fill="currentColor" xmlns="http://www.w3.org/2000/svg">
<g clip-path="url(#clip0_1795_459)">
<path d="M56.512 24.4907C53.568 24.8747 51.1573 25.0453 49.024 25.1733C42.752 25.6 38.9547 25.856 33.344 31.5733C32.0602 32.8927 30.6285 34.0595 29.0773 35.0507C30.0442 33.2238 30.8165 31.3003 31.3813 29.312C31.7721 27.6857 31.8803 26.0043 31.7013 24.3413V23.4667C31.7013 22.976 31.7013 22.4853 31.7013 21.9733C32.3413 20.9493 33.2373 19.5627 34.1973 18.1547H35.2213C38.1837 18.2345 41.1184 17.5668 43.7547 16.2133C43.879 16.1471 43.9882 16.0559 44.0757 15.9455C44.1632 15.8351 44.2269 15.7079 44.2629 15.5717C44.299 15.4356 44.3065 15.2934 44.2852 15.1542C44.2638 15.015 44.2139 14.8817 44.1387 14.7627C43.9667 14.524 43.7126 14.3572 43.4253 14.2942C43.1379 14.2312 42.8374 14.2765 42.5813 14.4213C40.4059 15.5175 37.9985 16.0737 35.5627 16.0427C35.6278 15.9406 35.6849 15.8336 35.7333 15.7227C36.608 14.08 36.416 10.9013 37.9733 10.5813C38.1125 10.5558 38.2453 10.5028 38.3638 10.4254C38.4823 10.3481 38.5843 10.2479 38.6637 10.1308C38.7431 10.0136 38.7984 9.88183 38.8264 9.7431C38.8544 9.60436 38.8545 9.46144 38.8267 9.32267C38.7929 9.15125 38.7198 8.99 38.6132 8.85157C38.5066 8.71314 38.3694 8.6013 38.2123 8.52483C38.0552 8.44835 37.8825 8.40932 37.7078 8.41079C37.5331 8.41227 37.3611 8.45421 37.2053 8.53333C34.5173 9.06667 34.304 13.1413 33.4293 14.784C33.0944 15.4478 32.7167 16.0891 32.2987 16.704C31.872 17.3227 31.4453 17.9627 31.0613 18.56C30.3194 14.6163 29.205 10.7519 27.7333 7.01867L27.6053 6.4C27.5081 6.1227 27.3068 5.89414 27.044 5.76273C26.7812 5.63131 26.4775 5.60738 26.1973 5.696C26.0594 5.7303 25.9298 5.79238 25.8167 5.87845C25.7035 5.96452 25.6091 6.07277 25.5392 6.19658C25.4693 6.32038 25.4254 6.45714 25.4102 6.59849C25.395 6.73985 25.4088 6.88282 25.4507 7.01867C27.0691 12.1656 28.0717 17.4863 28.4373 22.8693C28.4789 24.0519 28.429 25.2358 28.288 26.4107C25.9994 25.2604 24.026 23.5692 22.539 21.4836C21.0519 19.3981 20.0962 16.9812 19.7547 14.4427C19.7275 14.1559 19.5899 13.891 19.371 13.7038C19.152 13.5167 18.8688 13.4221 18.5813 13.44C18.2928 13.44 18.016 13.5546 17.812 13.7587C17.608 13.9627 17.4933 14.2394 17.4933 14.528C17.4507 14.9333 17.9627 23.4667 27.7333 28.6293C26.8772 31.6077 25.3522 34.3512 23.2747 36.6507C22.4775 37.5005 21.8221 38.4729 21.3333 39.5307C20.4601 41.7414 19.9278 44.072 19.7547 46.4427C19.6352 47.7242 19.4501 48.9988 19.2 50.2613C19.0785 50.8337 18.8622 51.3817 18.56 51.8827C17.3354 47.9788 16.3522 44.0033 15.616 39.9787C15.5581 38.927 15.5581 37.873 15.616 36.8213C18.287 35.9125 20.5528 34.0923 22.016 31.68C22.0887 31.5586 22.1349 31.4233 22.1516 31.2828C22.1682 31.1423 22.155 30.9998 22.1126 30.8648C22.0703 30.7298 21.9999 30.6053 21.9061 30.4995C21.8122 30.3936 21.697 30.3088 21.568 30.2507C21.3078 30.1133 21.0055 30.0788 20.721 30.1539C20.4365 30.2289 20.1906 30.4082 20.032 30.656C19.0012 32.3742 17.4564 33.725 15.616 34.5173C15.8293 30.976 16.2773 27.456 16.2773 27.4133C16.292 27.2715 16.2781 27.1281 16.2364 26.9918C16.1947 26.8554 16.126 26.7288 16.0345 26.6194C15.943 26.51 15.8306 26.42 15.7037 26.3549C15.5768 26.2897 15.4382 26.2507 15.296 26.24C15.0086 26.2024 14.7178 26.2767 14.4835 26.4474C14.2493 26.6181 14.0896 26.8722 14.0373 27.1573C13.4406 31.4749 13.2194 35.8362 13.376 40.192C13.5361 41.4282 13.7712 42.6536 14.08 43.8613C11.7674 42.8568 9.88547 41.0655 8.76801 38.8053C8.60686 38.5665 8.36482 38.3939 8.08647 38.3194C7.80813 38.2449 7.51225 38.2735 7.25334 38.4C7.12212 38.4528 7.00327 38.5323 6.90428 38.6333C6.8053 38.7344 6.72832 38.8549 6.67821 38.9872C6.6281 39.1194 6.60595 39.2607 6.61314 39.402C6.62033 39.5432 6.65672 39.6815 6.72001 39.808C7.52116 41.4023 8.64059 42.8155 10.0092 43.9603C11.3778 45.1051 12.9666 45.9572 14.6773 46.464C15.4667 49.5147 16.384 52.5653 16.8107 53.9307C16.3659 54.2475 15.8864 54.5124 15.3813 54.72C15.662 54.6221 15.9611 54.5885 16.2565 54.6218C16.5519 54.655 16.8361 54.7542 17.088 54.912C17.9413 55.36 18.816 56.512 18.4747 57.0453C18.4747 57.152 18.3253 57.1947 18.2613 57.2587C19.6204 56.6827 20.8217 55.7893 21.7644 54.6535C22.7072 53.5177 23.3641 52.1726 23.68 50.7307C23.9787 49.216 24.128 47.9787 24.256 46.8053C24.3939 44.6102 24.8762 42.4505 25.6853 40.4053C25.8839 39.9379 26.1344 39.4942 26.432 39.0827C29.5174 37.6155 32.3479 35.6636 34.816 33.3013C40.0688 32.922 45.2913 34.3689 49.6 37.3973C49.7998 37.5378 50.0385 37.6123 50.2827 37.6107C50.4546 37.6124 50.6247 37.5748 50.78 37.5009C50.9353 37.427 51.0716 37.3186 51.1787 37.184C51.2704 37.0761 51.3376 36.9496 51.3759 36.8132C51.4141 36.6769 51.4223 36.5339 51.4 36.394C51.3777 36.2542 51.3254 36.1208 51.2467 36.0031C51.168 35.8853 51.0647 35.786 50.944 35.712C46.8833 32.8808 42.0889 31.2876 37.1413 31.1253C38.3181 30.0923 39.6593 29.2631 41.1093 28.672C43.9801 30.0502 47.1431 30.7091 50.3253 30.592C51.924 30.5837 53.5204 30.4696 55.104 30.2507C55.2464 30.2375 55.3846 30.1958 55.5106 30.1281C55.6365 30.0604 55.7475 29.9681 55.8371 29.8567C55.9266 29.7453 55.9929 29.6169 56.0319 29.4794C56.0708 29.3418 56.0818 29.1979 56.064 29.056C56.0023 28.7731 55.8363 28.5239 55.5991 28.3578C55.3619 28.1918 55.0709 28.1212 54.784 28.16C51.3169 28.6553 47.7883 28.5107 44.3733 27.7333C45.7813 27.4987 47.3173 27.392 49.1733 27.264C51.0293 27.136 53.8027 26.944 56.832 26.56C56.9744 26.5468 57.1126 26.5051 57.2386 26.4375C57.3645 26.3698 57.4755 26.2775 57.5651 26.166C57.6546 26.0546 57.7209 25.9263 57.7599 25.7887C57.7988 25.6512 57.8098 25.5072 57.792 25.3653C57.7351 25.0813 57.5693 24.8307 57.3302 24.6673C57.091 24.5038 56.7973 24.4405 56.512 24.4907Z" />
<path d="M17.9201 56.8107C17.6428 57.1733 16.6401 57.024 16.0214 56.5973C15.4028 56.1707 15.1468 55.5307 15.4241 55.1467C15.7014 54.7627 16.4694 54.8267 17.0881 55.1467C17.7068 55.4667 18.2188 56.448 17.9201 56.8107Z" />
</g>
<defs>
<clipPath id="clip0_1795_459">
<rect width="64" height="64" />
</clipPath>
</defs>
</svg>

<svg xmlns="http://www.w3.org/2000/svg" width="64" height="64" fill="currentColor" viewBox="0 0 64 64"><g clip-path="url(#a)"><path d="M56.512 24.49c-2.944.385-5.355.555-7.488.683-6.272.427-10.07.683-15.68 6.4a24 24 0 0 1-4.267 3.478 29.5 29.5 0 0 0 2.304-5.739c.391-1.626.5-3.308.32-4.97v-2.369a119 119 0 0 1 2.496-3.818h1.024c2.963.08 5.897-.588 8.534-1.942a1.024 1.024 0 0 0 .384-1.45 1.195 1.195 0 0 0-1.558-.342 15.2 15.2 0 0 1-7.018 1.622q.098-.154.17-.32c.875-1.643.683-4.822 2.24-5.142a1.065 1.065 0 0 0 .854-1.258 1.13 1.13 0 0 0-1.622-.79c-2.688.534-2.901 4.608-3.776 6.251a17 17 0 0 1-1.13 1.92 70 70 0 0 0-1.238 1.856 63.5 63.5 0 0 0-3.328-11.541l-.128-.619a1.13 1.13 0 0 0-1.408-.704 1.045 1.045 0 0 0-.746 1.323 68.3 68.3 0 0 1 2.986 15.85 23 23 0 0 1-.149 3.542 15.74 15.74 0 0 1-8.533-11.968 1.11 1.11 0 0 0-1.174-1.003 1.09 1.09 0 0 0-1.088 1.088c-.042.405.47 8.939 10.24 14.101a20.35 20.35 0 0 1-4.458 8.022 10.9 10.9 0 0 0-1.942 2.88 23.5 23.5 0 0 0-1.578 6.912 38 38 0 0 1-.555 3.818 5.3 5.3 0 0 1-.64 1.622 100 100 0 0 1-2.944-11.904 29 29 0 0 1 0-3.158 12 12 0 0 0 6.4-5.141 1.004 1.004 0 0 0-.448-1.43 1.173 1.173 0 0 0-1.536.406 9.56 9.56 0 0 1-4.416 3.861c.213-3.541.661-7.061.661-7.104a1.066 1.066 0 0 0-.981-1.173 1.13 1.13 0 0 0-1.259.917 75.4 75.4 0 0 0-.661 13.035c.16 1.236.395 2.462.704 3.67a10.67 10.67 0 0 1-5.312-5.057 1.195 1.195 0 0 0-1.515-.405 1.024 1.024 0 0 0-.533 1.408 13.06 13.06 0 0 0 7.957 6.656c.79 3.05 1.707 6.101 2.134 7.467a7 7 0 0 1-1.43.789 1.98 1.98 0 0 1 1.707.192c.853.448 1.728 1.6 1.387 2.133 0 .107-.15.15-.214.214a9.24 9.24 0 0 0 5.419-6.528c.299-1.515.448-2.752.576-3.926.138-2.195.62-4.355 1.43-6.4q.298-.702.746-1.322a32 32 0 0 0 8.384-5.782A22.85 22.85 0 0 1 49.6 37.397c.2.14.438.215.683.214a1.13 1.13 0 0 0 .896-.427.983.983 0 0 0-.235-1.472 25.6 25.6 0 0 0-13.803-4.587 14 14 0 0 1 3.968-2.453 19.6 19.6 0 0 0 9.216 1.92 36 36 0 0 0 4.779-.341 1.067 1.067 0 0 0 .96-1.195 1.15 1.15 0 0 0-1.28-.896 28.7 28.7 0 0 1-10.41-.427c1.407-.234 2.943-.341 4.8-.469 1.855-.128 4.629-.32 7.658-.704a1.07 1.07 0 0 0 .96-1.195 1.11 1.11 0 0 0-1.28-.874"/><path d="M17.92 56.81c-.277.363-1.28.214-1.899-.213-.618-.426-.874-1.066-.597-1.45s1.045-.32 1.664 0 1.13 1.301.832 1.664"/></g><defs><clipPath id="a"><path d="M0 0h64v64H0z"/></clipPath></defs></svg>
